X: 2
T:Jolly Robin
M:6/4
L:1/4
S:Robert Jones 1609
Z:p
K:G
Gdd|d2Be>dc|B2d A2c|G2BAAz|ccc|f2c A2B|c2e d>cB|cA2GGz|
BB^cd2G|^F>ED F2G|A3fed|c2de2f|e2ed3||d3A>BcdDz|zzz|d>efgGz|B>cdcB2|A3ed
c|B2GB2c|d2zzzB|dBGzzB|dBGzzB|ecAzze|dcBAGA|G3||
